X:1
T:Der reiche Fürst
T:unbekannt, Matthias C
T:Justinus Kerner
T:Landeshymne von Württemberg
T:© 2012
T:© 2012
T:© 2012
T:© 2012
T:© 2012
T:© 2012
T:© 2012
T:© 2012
Z:© 2012
%%score { 1 | 2 } 3 4
L:1/8
Q:1/4=124
M:4/4
K:F
V:1 treble nm="Piano" snm="Pno."
V:2 bass 
V:3 treble nm="Piano" snm="Pno."
V:4 bass nm="Euphonium" snm="Eu."
V:1
|:!f!"^Hymnal Con Moto 124" z6 CC | F2 F2 C2 C2 | A,2 CA, C2 FF | G2 A2 G2 A2 | Gc=BA G2 FF | %5
w: Preis- end|mit viel schö- nen|Re- * * den, ihr- er|Län- der Wert und|Za- * * * hl, ihr- er|
w: "Herr- lich",|sprach der Fürst von|Sa- * * chsen, "ist mein|Land und sei- ne|Ma- * * * cht, ist mein|
w: E- ber-|hardt, der mit dem|Ba- * * rte, Würt- tem-|bergs ge- lieb- ter|He- * * * rr, Würt- tem-|
 E3 E G3 G | C4 z2 CC | B3 G A3 F | AG G2 z2 CC | B3 G A3 F | AG G2 z2 CC | c2 c2 G2 G2 | %12
w: Län- der Wert und|Zahl, sas- sen|vie- le deu- tsche|Fürs- * ten, sas- sen|vie- le deu- tsche|Fürs- * ten, einst zu|Worms im Kai- ser-|
w: Land und sei- ne|Macht. Sil- ber|he- gen sei- ne|Ber- * ge, Sil- ber|he- gen sei- ne|Ber- * ge, wohl in|man- chem tie- fen|
w: bergs ge- lieb- ter|Herr, sprach: "Mein|Land hat klei- ne|Städ- * te", sprach: "Mein|Land hat klei- ne|Städ- * te, trägt nicht|Ber- ge sil- ber-|
 c3 A F2 FE | DBAG A2 G2 | F6 z2 ::!ff! z6 GG | c2 c2 G2 G2 | E2 GE G2 cc | d2 e2 d2 e2 | %19
w: sa- * al, einst zu|Wo- * rms im Kai- ser-|saal.|"Seht mein|Land in üpp'- ger|Fül- * * le", sprach der|Kür- fürst von dem|
w: Scha- * cht, wohl in|man- * * chem tie- fen|Schacht."|"Gros- se|Städ- te, rei- che|Klö- * * ster", Lud- wig,|Herr zu Bay- ern|
w: schwe- * r, trägt nicht|Be- * * rge sil- ber-|schwer.|Doch ein|Klein- od hält's ver-|bor- * * gen, dass in|Wäl- dern noch so|
 dg^fe d2 cc | =B3 B d3 d | G4 z2 GG | f3 d e3 c | ed d2 z2 GG | f3 d e3 c | ed d2 z2 GG | %26
w: Rhei- * * * n, sprach der|Kur- fürst von dem|Rhein. "Gol- dne|Saat- en in den|Tä- * lern, gold- ne|Saat- en in den|Tä- * lern, auf den|
w: spra- * * * ch, Lud- wig,|Herr zu Bay- ern|sprach, "schaf- fen,|dass mein Land dem|eu- * ern, schaf- fen,|dass mein Land dem|eu- * ern, wohl nicht|
w: gros- * * * s, dass in|Wäl- dern noch so|groß, ich mein|Haupt kann kühn- lich|le- * gen, ich mein|Haupt kann kühn- lich|le- * gen jed- em|
 c2 c2 d2 d2 | g3 e c2 c=B | Afed e2 d2 | c6 z2!D.C.! :|!ff! z6 CC | F2 F2 C2 C2 | A,2 CA, C2 FF | %33
w: Ber- gen ed- len|Wei- * n, auf den|Ber- * * gen ed- len|Wein."||||
w: steht in Schät- zen|na- * ch, wohl nicht|ste- * ht in Schät- zen|nach."||||
w: Un- ter- tan in|Schos- * s, jed- em|Un- * * ter- tan in|Schoß."|Und es|rief der Herr von|Sa- * * chsen, der von|
 A2 G2 A2 G2 | Ac=BA G2 z2 | z8 | z4 z2!fff! EE | e3 c d3 A | cB B2 z2 z2 | z8 | z4 z2 CC | %41
w: ||||||||
w: ||||||||
w: Bay- ern, der vom|Rhei- * * * n:||"Graf im|Bart, ihr seid der|Rei- * chste,||Eu- er|
 F2 F2 G2 G2 | c3 A F2!ff! FE | DBAG A2 G2 | c6 FE | DBAG A2 G2 | F8 | z8 |] %48
w: |||||||
w: |||||||
w: Land trägt Ed- el-|stei- * n, eu- er|La- * nd trägt Ed- el-|stein, eu- er|La- * nd trägt Ed- el-|stein-||
V:2
|:!f! z6 C,C, | A,,2 A,,2 C,2 C,2 | A,,2 C,A,, F,,2 A,,C, | C,2 C,2 C,2 C,2 | E,2 F,2 G,2 A,A, | %5
w: |||||
w: |||||
w: |||||
 E,3 E, G,3 G, | F,2 C,2 z2 C,C, | B,,3 G,, A,,3 F,, | A,,G,, G,,2 z2 C,C, | G,3 G, D,3 F,, | %10
w: |Za- hl, * *||||
w: |Ma- cht. * *||||
w: |He- rr, * *||||
 G,,2 G,,2 z2 C,C, | F,2 F,2 G,2 G,2 | F,6 B,,B,, | D,3 D, D,F,B,,D, | F,6 z2 ::!fff! z6 G,G, | %16
w: ||saal, einst zu|Worms im Kai- * * ser-|saal.||
w: ||Schacht, wohl in|man- chem tie- * * fen|Schacht.||
w: ||schwer, trägt nicht|Ber- ge sil- * * ber-|schwer.||
 E,2 E,2 G,2 G,2 | E,2 G,E, C,2 E,G, | G,2 G,2 G,2 G,2 | =B,2 C2 D2 E,E, | =B,,3 D, D,3 D, | %21
w: |||||
w: |||||
w: |||||
 G,4 z4 | G,,G,, F,3 D, E,2- | E,C,E,D, D,2 z2 | z8 | z6 G,,G,, | C,2 C,2 D,2 D,2 | C,6 C,=B,, | %28
w: |"Gol- dne Saat- en i-|n den Tä- * lern,"||||Wein, auf den|
w: |"schaf- fen, dass mein Lan-|d dem eu- * ern,"||||nach, wohl nicht|
w: |ich mein Haupt kann küh-|n- lich le- * gen,||||Schoß, jed- em|
 A,3 A, C,2 B,,2 | A,,2 C,4 z2 :|!ff! z6 C,C, | C,2 A,,2 C,2 E,2 | A,,2 C,A,, F,,2 A,,C, | %33
w: Ber- gen ed- len|Wei- n.||||
w: steht in Schät- zen|nac- h.||||
w: Un- ter- tan in|Schos- s.||||
 E,2 C2 F,2 C2 | E,2 F,2 G,2!f! F,F, | E,3 E, G,3 G, | C,4 z4 | z8 | z4 z2 G,,G,, | G,3 E, F,3 D, | %40
w: |Rhei- * n, der von|Bay- ern, der vom|Rhein:||"Graf im|Bart, ihr seid der|
w: |||||||
w: |||||||
 F,E, E,2 z4 | z8 | z8 |!fff! z2 F,2 E,2 G,,2 | A,,2 G,,2 C,4 | C,4 A,,2 G,,2 | F,,8 | z8 |] %48
w: Rei * chste,|||eu- er Lan-|d trägt Ed-|el- stei- *|n."||
w: ||||||||
w: ||||||||
V:3
|:!f! E2 D2 D2 C2 | FcFA CGCE | A,ECA, CFFA | GcAc GcAc | C4 EGFD | CECE DGDC | cF C4 CE | %7
 DGDG EGFD | EAEG DB,EG | DGDG EGFD | EAEG DB,EG | cfcf gcGc | EGEE DBAG | DFAF FEDE | dAFD GBGd :: %15
!ff! =B2 A2 A2 G2 | cgce GdG=B | E=BGE Gcce | dgeg dgeg | G4 =BdcA | G=BGB AdAG | =Bd G4 GB | %22
 AdAd =BdcA | =BeBd AFBd | AdAd =BdcA | =BeBd AFBd | gc'gc' d'gdg | =BdBB Afed | Acec c=BAB | %29
 aecA dfda :|!f! bgcG DCEG | dcdF cGeG | EAAc cfcf | cAcG cAcG | EcFA Gccd | cAcA dBcd | %36
 EGcc DGCG | CEFF FEFA | AB,B,D GcAc | cedc d4 | d4 dc!p!eg | dccd edde | ceAd fgfe | BddB AEGE | %44
 ceAd!mf! fgfe | BddB AEGE | [Ff]8 | z8 |] %48
V:4
|:!mf! E,2 G,2 A,2 E,2 | F,2 D,2 E,2 C,2 | E,2 A,2 B,2 A,2 | C4 z4 | C,6 D,2 | E,2 C,2 G,4 | %6
 F,4 G,2 C,2 | D,2 B,2 C,2 D,2 | E,4 G,2 C,2 | G,2 B,2 C,2 D,2 | E,2 D,2 G,2 C,2 | z8 | %12
 z E2 D2 B, A,2 | z B,2 G,2 A, G,2 | F,4 D,4 :: =B,2 D2 E2 B,2 | C2 A,2 =B,2 G,2 | =B,2 E2 F2 E2 | %18
 G4 z4 | G,6 A,2 | =B,2 G,2 D,4 | =B,4 D2 G,2 | A,2 F,2 G,2 A,2 | =B,4 D2 G,2 | D2 F,2 G,2 A,2 | %25
 =B,2 A,2 D2 G,2 | z8 | z G4 A3 | z =B,2 A,2 F, E,2 | A,4 C4 :| B,2 G,2 A,2 B,2 | F,2 D,2 E,2 C,2 | %32
 E,2 A,2 B,2 A,2 | C4 z4 | C,6 D,2 | E,2 C,2 G,,4 | E,4 B,2 E,2 | G,2 F,2 F,2 G,2 | F,4 F,2 B,,2 | %39
 F,2 A,,2 B,,2 C,2 | D,2 B,,2 G,2 C,2 | z8 | z E2 D2 B, A,2 | G4 DA,B,G, | A6 A2 | G4 DA,B,G, | %46
 A8 | z8 |] %48

